dist/static/img/context/res-1.svg

<svg width="80" height="80" viewBox="0 0 80 80" fill="none" xmlns="http://www.w3.org/2000/svg">
<rect width="80" height="80" rx="40" fill="#1F5AFF"/>
<g clip-path="url(#clip0_980_2014)">
<path d="M63.25 56.5H16.75C16.5511 56.5 16.3603 56.421 16.2197 56.2803C16.079 56.1397 16 55.9489 16 55.75V22.75C16 22.5511 16.079 22.3603 16.2197 22.2197C16.3603 22.079 16.5511 22 16.75 22H35.5V23.5H17.5V55H62.5V23.5H60.25V22H63.25C63.4489 22 63.6397 22.079 63.7803 22.2197C63.921 22.3603 64 22.5511 64 22.75V55.75C64 55.9489 63.921 56.1397 63.7803 56.2803C63.6397 56.421 63.4489 56.5 63.25 56.5Z" fill="white"/>
<path d="M49.7502 61H30.2502C30.1313 61 30.0142 60.9718 29.9084 60.9177C29.8026 60.8636 29.7112 60.7851 29.6417 60.6887C29.5722 60.5923 29.5266 60.4808 29.5086 60.3633C29.4907 60.2458 29.5009 60.1257 29.5384 60.013L31.0384 55.513C31.0882 55.3636 31.1837 55.2336 31.3115 55.1416C31.4392 55.0495 31.5927 55 31.7502 55H48.2502C48.4077 55 48.5611 55.0495 48.6889 55.1416C48.8166 55.2336 48.9122 55.3636 48.9619 55.513L50.4619 60.013C50.4995 60.1257 50.5097 60.2458 50.4918 60.3633C50.4738 60.4808 50.4282 60.5923 50.3587 60.6887C50.2892 60.7851 50.1978 60.8636 50.092 60.9177C49.9862 60.9718 49.869 61 49.7502 61V61ZM31.2904 59.5H48.7099L47.7094 56.5H32.2909L31.2904 59.5Z" fill="white"/>
<path d="M52.75 64H27.25C27.0511 64 26.8603 63.921 26.7197 63.7803C26.579 63.6397 26.5 63.4489 26.5 63.25C26.5012 62.2558 26.8967 61.3027 27.5997 60.5997C28.3027 59.8967 29.2558 59.5012 30.25 59.5H49.75C50.7442 59.5012 51.6973 59.8967 52.4003 60.5997C53.1033 61.3027 53.4988 62.2558 53.5 63.25C53.5 63.4489 53.421 63.6397 53.2803 63.7803C53.1397 63.921 52.9489 64 52.75 64ZM28.1282 62.5H51.8717C51.7161 62.0616 51.4286 61.6821 51.0487 61.4136C50.6688 61.145 50.2152 61.0006 49.75 61H30.25C29.7848 61.0006 29.3312 61.145 28.9513 61.4136C28.5714 61.6821 28.2839 62.0616 28.1282 62.5V62.5Z" fill="white"/>
<path d="M16.75 49H63.25V50.5H16.75V49Z" fill="white"/>
<path d="M59.5 46H61V47.5H59.5V46Z" fill="white"/>
<path d="M59.5 34H61V44.5H59.5V34Z" fill="white"/>
<path d="M44.8747 53.5H35.1247C34.6271 53.5188 34.1311 53.4347 33.6676 53.2529C33.2041 53.0712 32.7831 52.7956 32.4311 52.4436C32.0791 52.0915 31.8035 51.6706 31.6217 51.2071C31.4399 50.7436 31.3558 50.2475 31.3747 49.75H32.8747C32.8588 50.0497 32.9061 50.3493 33.0136 50.6295C33.121 50.9097 33.2862 51.1641 33.4984 51.3763C33.7106 51.5885 33.965 51.7536 34.2452 51.8611C34.5254 51.9686 34.825 52.0159 35.1247 52H44.8747C45.1743 52.0159 45.474 51.9686 45.7541 51.8611C46.0343 51.7536 46.2888 51.5885 46.5009 51.3763C46.7131 51.1641 46.8783 50.9097 46.9858 50.6295C47.0932 50.3493 47.1405 50.0497 47.1247 49.75L48.6247 49.7538C48.643 50.251 48.5585 50.7466 48.3765 51.2096C48.1944 51.6727 47.9188 52.0932 47.5668 52.4448C47.2148 52.7965 46.794 53.0717 46.3308 53.2532C45.8676 53.4348 45.3718 53.5188 44.8747 53.5Z" fill="white"/>
<path d="M57.25 44.5H43V43H56.5V34H58V43.75C58 43.9489 57.921 44.1397 57.7803 44.2803C57.6397 44.421 57.4489 44.5 57.25 44.5Z" fill="white"/>
<path d="M54.25 44.5H51.25C51.0511 44.5 50.8603 44.421 50.7197 44.2803C50.579 44.1397 50.5 43.9489 50.5 43.75V35.5C50.5 35.3011 50.579 35.1103 50.7197 34.9697C50.8603 34.829 51.0511 34.75 51.25 34.75H54.25C54.4489 34.75 54.6397 34.829 54.7803 34.9697C54.921 35.1103 55 35.3011 55 35.5V43.75C55 43.9489 54.921 44.1397 54.7803 44.2803C54.6397 44.421 54.4489 44.5 54.25 44.5ZM52 43H53.5V36.25H52V43Z" fill="white"/>
<path d="M48.25 44.5H45.25C45.0511 44.5 44.8603 44.421 44.7197 44.2803C44.579 44.1397 44.5 43.9489 44.5 43.75V37.75C44.5 37.5511 44.579 37.3603 44.7197 37.2197C44.8603 37.079 45.0511 37 45.25 37H48.25C48.4489 37 48.6397 37.079 48.7803 37.2197C48.921 37.3603 49 37.5511 49 37.75V43.75C49 43.9489 48.921 44.1397 48.7803 44.2803C48.6397 44.421 48.4489 44.5 48.25 44.5ZM46 43H47.5V38.5H46V43Z" fill="white"/>
<path d="M56.5 46H58V47.5H56.5V46Z" fill="white"/>
<path d="M37.75 46H55V47.5H37.75V46Z" fill="white"/>
<path d="M36.6409 41.6959C36.1958 41.6927 35.7617 41.5572 35.3938 41.3066C35.0259 41.0561 34.7407 40.7019 34.5746 40.2889L30.0791 29.2489C29.8552 28.7058 29.8525 28.0967 30.0716 27.5517C30.179 27.2814 30.34 27.0358 30.545 26.8295C30.75 26.6233 30.9946 26.4607 31.2641 26.3517L32.5984 25.8094C32.7823 25.7352 32.9882 25.7368 33.1709 25.814C33.3536 25.8911 33.4983 26.0375 33.5734 26.2212L39.1924 40.0212C39.2666 40.2051 39.265 40.4109 39.1878 40.5937C39.1106 40.7764 38.9642 40.9211 38.7806 40.9962L37.4501 41.5377C37.1932 41.6423 36.9183 41.6961 36.6409 41.6959V41.6959ZM32.4686 27.4752L31.8289 27.7354C31.7457 27.7697 31.6703 27.8207 31.6075 27.8852C31.5447 27.9497 31.4958 28.0263 31.4636 28.1104C31.3907 28.2948 31.3926 28.5004 31.4689 28.6834L35.9636 39.7234C36.0296 39.9014 36.1634 40.046 36.3357 40.1257C36.508 40.2053 36.7048 40.2136 36.8831 40.1487L37.5229 39.8884L32.4686 27.4752Z" fill="white"/>
<path d="M26.8055 40.982C26.6563 40.9822 26.5104 40.9378 26.3866 40.8545C26.2627 40.7713 26.1665 40.653 26.1103 40.5148L23.8603 34.9948C23.8026 34.8534 23.7894 34.6979 23.8225 34.5488C23.8556 34.3998 23.9334 34.2644 24.0455 34.1608L30.2623 28.415L31.28 29.5168L25.4503 34.91L27.3058 39.4685L35.2505 39.2563L35.291 40.7563L26.8273 40.9813L26.8055 40.982Z" fill="white"/>
<path d="M21.6065 42.9861C21.3028 42.9852 21.0026 42.9208 20.7252 42.7971C20.1866 42.5601 19.7623 42.1215 19.5432 41.5753L18.4182 38.8146C18.1942 38.2718 18.1913 37.663 18.41 37.1181C18.5173 36.8477 18.6784 36.602 18.8835 36.3957C19.0886 36.1894 19.3335 36.027 19.6032 35.9181L24.2735 34.0176L24.839 35.4073L20.1695 37.3063C20.0863 37.3409 20.011 37.3919 19.9481 37.4564C19.8852 37.5208 19.836 37.5973 19.8035 37.6813C19.7306 37.8655 19.7325 38.0708 19.8087 38.2536L20.9337 41.0143C21.0067 41.1985 21.1489 41.3468 21.3297 41.4276C21.4119 41.465 21.5007 41.4854 21.591 41.4874C21.6812 41.4895 21.771 41.4732 21.8547 41.4396L26.5257 39.5391L27.0912 40.9288L22.4172 42.8263C22.1599 42.9315 21.8845 42.9858 21.6065 42.9861V42.9861Z" fill="white"/>
<path d="M24.4877 46.75C24.3385 46.7501 24.1926 46.7057 24.0688 46.6224C23.9449 46.5392 23.8487 46.4209 23.7924 46.2827L22.1064 42.1427L23.4962 41.575L24.8994 45.025L26.1789 44.5L24.7749 41.0567L26.1647 40.4912L27.8499 44.6312C27.9242 44.8151 27.9226 45.021 27.8454 45.2037C27.7682 45.3865 27.6218 45.5312 27.4382 45.6062L24.7689 46.6915C24.68 46.7293 24.5844 46.7492 24.4877 46.75V46.75Z" fill="white"/>
<path d="M27.6865 31.0234L29.0755 30.4579L33.0077 40.1163L31.6187 40.6818L27.6865 31.0234Z" fill="white"/>
<path d="M42.25 36.25C42.0511 36.25 41.8603 36.171 41.7197 36.0303C41.579 35.8897 41.5 35.6989 41.5 35.5V32.5H39.25C38.6533 32.5 38.081 32.2629 37.659 31.841C37.2371 31.419 37 30.8467 37 30.25V18.25C37 17.6533 37.2371 17.081 37.659 16.659C38.081 16.2371 38.6533 16 39.25 16H58.75C59.3467 16 59.919 16.2371 60.341 16.659C60.7629 17.081 61 17.6533 61 18.25V30.25C61 30.8467 60.7629 31.419 60.341 31.841C59.919 32.2629 59.3467 32.5 58.75 32.5H46.3105L42.7803 36.0303C42.6396 36.1709 42.4489 36.25 42.25 36.25ZM39.25 17.5C39.0511 17.5 38.8603 17.579 38.7197 17.7197C38.579 17.8603 38.5 18.0511 38.5 18.25V30.25C38.5 30.4489 38.579 30.6397 38.7197 30.7803C38.8603 30.921 39.0511 31 39.25 31H42.25C42.4489 31 42.6397 31.079 42.7803 31.2197C42.921 31.3603 43 31.5511 43 31.75V33.6895L45.4697 31.2197C45.6104 31.0791 45.8011 31 46 31H58.75C58.9489 31 59.1397 30.921 59.2803 30.7803C59.421 30.6397 59.5 30.4489 59.5 30.25V18.25C59.5 18.0511 59.421 17.8603 59.2803 17.7197C59.1397 17.579 58.9489 17.5 58.75 17.5H39.25Z" fill="white"/>
<path d="M43 26.5C42.555 26.5 42.12 26.368 41.75 26.1208C41.38 25.8736 41.0916 25.5222 40.9213 25.111C40.751 24.6999 40.7064 24.2475 40.7932 23.811C40.8801 23.3746 41.0943 22.9737 41.409 22.659C41.7237 22.3443 42.1246 22.1301 42.561 22.0432C42.9975 21.9564 43.4499 22.001 43.861 22.1713C44.2722 22.3416 44.6236 22.63 44.8708 23C45.118 23.37 45.25 23.805 45.25 24.25C45.25 24.8467 45.0129 25.419 44.591 25.841C44.169 26.2629 43.5967 26.5 43 26.5V26.5ZM43 23.5C42.8517 23.5 42.7067 23.544 42.5833 23.6264C42.46 23.7088 42.3639 23.8259 42.3071 23.963C42.2503 24.1 42.2355 24.2508 42.2644 24.3963C42.2934 24.5418 42.3648 24.6754 42.4697 24.7803C42.5746 24.8852 42.7082 24.9567 42.8537 24.9856C42.9992 25.0145 43.15 24.9997 43.287 24.9429C43.4241 24.8861 43.5412 24.79 43.6236 24.6667C43.706 24.5433 43.75 24.3983 43.75 24.25C43.75 24.0511 43.671 23.8603 43.5303 23.7197C43.3897 23.579 43.1989 23.5 43 23.5Z" fill="white"/>
<path d="M49 26.5C48.555 26.5 48.12 26.368 47.75 26.1208C47.38 25.8736 47.0916 25.5222 46.9213 25.111C46.751 24.6999 46.7064 24.2475 46.7932 23.811C46.8801 23.3746 47.0943 22.9737 47.409 22.659C47.7237 22.3443 48.1246 22.1301 48.561 22.0432C48.9975 21.9564 49.4499 22.001 49.861 22.1713C50.2722 22.3416 50.6236 22.63 50.8708 23C51.118 23.37 51.25 23.805 51.25 24.25C51.25 24.8467 51.0129 25.419 50.591 25.841C50.169 26.2629 49.5967 26.5 49 26.5V26.5ZM49 23.5C48.8517 23.5 48.7067 23.544 48.5833 23.6264C48.46 23.7088 48.3639 23.8259 48.3071 23.963C48.2503 24.1 48.2355 24.2508 48.2644 24.3963C48.2934 24.5418 48.3648 24.6754 48.4697 24.7803C48.5746 24.8852 48.7082 24.9567 48.8537 24.9856C48.9992 25.0145 49.15 24.9997 49.287 24.9429C49.4241 24.8861 49.5412 24.79 49.6236 24.6667C49.706 24.5433 49.75 24.3983 49.75 24.25C49.75 24.0511 49.671 23.8603 49.5303 23.7197C49.3897 23.579 49.1989 23.5 49 23.5Z" fill="white"/>
<path d="M55 26.5C54.555 26.5 54.12 26.368 53.75 26.1208C53.38 25.8736 53.0916 25.5222 52.9213 25.111C52.751 24.6999 52.7064 24.2475 52.7932 23.811C52.8801 23.3746 53.0943 22.9737 53.409 22.659C53.7237 22.3443 54.1246 22.1301 54.561 22.0432C54.9975 21.9564 55.4499 22.001 55.861 22.1713C56.2722 22.3416 56.6236 22.63 56.8708 23C57.118 23.37 57.25 23.805 57.25 24.25C57.25 24.8467 57.0129 25.419 56.591 25.841C56.169 26.2629 55.5967 26.5 55 26.5V26.5ZM55 23.5C54.8517 23.5 54.7067 23.544 54.5833 23.6264C54.46 23.7088 54.3639 23.8259 54.3071 23.963C54.2503 24.1 54.2355 24.2508 54.2644 24.3963C54.2934 24.5418 54.3648 24.6754 54.4697 24.7803C54.5746 24.8852 54.7082 24.9567 54.8537 24.9856C54.9992 25.0145 55.15 24.9997 55.287 24.9429C55.4241 24.8861 55.5412 24.79 55.6236 24.6667C55.706 24.5433 55.75 24.3983 55.75 24.25C55.75 24.0511 55.671 23.8603 55.5303 23.7197C55.3897 23.579 55.1989 23.5 55 23.5Z" fill="white"/>
<path d="M20.5 28.75H19V25.75C19 25.5511 19.079 25.3603 19.2197 25.2197C19.3603 25.079 19.5511 25 19.75 25H22.75V26.5H20.5V28.75Z" fill="white"/>
<path d="M19 30.25H20.5V31.75H19V30.25Z" fill="white"/>
</g>
<defs>
<clipPath id="clip0_980_2014">
<rect width="48" height="48" fill="white" transform="translate(16 16)"/>
</clipPath>
</defs>
</svg>

<svg width="80" height="80" viewBox="0 0 80 80" fill="none" xmlns="http://www.w3.org/2000/svg"><rect width="80" height="80" rx="40" fill="#1F5AFF"/><g clip-path="url(#clip0_980_2014)" fill="#fff"><path d="M63.25 56.5h-46.5a.75.75 0 01-.75-.75v-33a.75.75 0 01.75-.75H35.5v1.5h-18V55h45V23.5h-2.25V22h3a.75.75 0 01.75.75v33a.75.75 0 01-.75.75z"/><path d="M49.75 61h-19.5a.75.75 0 01-.712-.987l1.5-4.5A.75.75 0 0131.75 55h16.5a.75.75 0 01.712.513l1.5 4.5a.75.75 0 01-.712.987zm-18.46-1.5h17.42l-1-3H32.29l-1 3z"/><path d="M52.75 64h-25.5a.75.75 0 01-.75-.75 3.754 3.754 0 013.75-3.75h19.5a3.754 3.754 0 013.75 3.75.75.75 0 01-.75.75zm-24.622-1.5h23.744A2.253 2.253 0 0049.75 61h-19.5a2.254 2.254 0 00-2.122 1.5zM16.75 49h46.5v1.5h-46.5V49zm42.75-3H61v1.5h-1.5V46zm0-12H61v10.5h-1.5V34z"/><path d="M44.875 53.5h-9.75a3.616 3.616 0 01-3.75-3.75h1.5a2.139 2.139 0 002.25 2.25h9.75a2.138 2.138 0 002.25-2.25l1.5.004a3.616 3.616 0 01-3.75 3.746zm12.375-9H43V43h13.5v-9H58v9.75a.75.75 0 01-.75.75z"/><path d="M54.25 44.5h-3a.75.75 0 01-.75-.75V35.5a.75.75 0 01.75-.75h3a.75.75 0 01.75.75v8.25a.75.75 0 01-.75.75zM52 43h1.5v-6.75H52V43zm-3.75 1.5h-3a.75.75 0 01-.75-.75v-6a.75.75 0 01.75-.75h3a.75.75 0 01.75.75v6a.75.75 0 01-.75.75zM46 43h1.5v-4.5H46V43zm10.5 3H58v1.5h-1.5V46zm-18.75 0H55v1.5H37.75V46zm-1.11-4.304a2.244 2.244 0 01-2.065-1.407l-4.496-11.04a2.25 2.25 0 01-.007-1.697 2.152 2.152 0 011.192-1.2l1.334-.543a.75.75 0 01.975.412l5.62 13.8a.75.75 0 01-.412.975l-1.33.542a2.142 2.142 0 01-.81.158zm-4.171-14.22l-.64.26a.66.66 0 00-.365.374.762.762 0 00.005.573l4.495 11.04a.719.719 0 00.92.426l.639-.26-5.054-12.414z"/><path d="M26.805 40.982a.749.749 0 01-.695-.467l-2.25-5.52a.75.75 0 01.186-.834l6.216-5.746 1.018 1.102-5.83 5.393 1.856 4.559 7.945-.213.04 1.5-8.464.225-.022.001z"/><path d="M21.607 42.986a2.25 2.25 0 01-2.063-1.41l-1.126-2.761a2.25 2.25 0 01-.008-1.697 2.149 2.149 0 011.193-1.2l4.67-1.9.566 1.39-4.67 1.898a.667.667 0 00-.366.375.76.76 0 00.006.573l1.125 2.76a.76.76 0 00.396.414.666.666 0 00.525.012l4.67-1.9.566 1.389-4.674 1.897c-.257.105-.533.16-.81.16z"/><path d="M24.488 46.75a.75.75 0 01-.696-.467l-1.686-4.14 1.39-.568 1.403 3.45 1.28-.525-1.404-3.443 1.39-.566 1.685 4.14a.75.75 0 01-.412.975l-2.67 1.085a.734.734 0 01-.28.059zm3.198-15.727l1.39-.565 3.932 9.658-1.39.566-3.931-9.659zM42.25 36.25a.75.75 0 01-.75-.75v-3h-2.25A2.25 2.25 0 0137 30.25v-12A2.25 2.25 0 0139.25 16h19.5A2.25 2.25 0 0161 18.25v12a2.25 2.25 0 01-2.25 2.25H46.31l-3.53 3.53a.75.75 0 01-.53.22zm-3-18.75a.75.75 0 00-.75.75v12a.75.75 0 00.75.75h3a.75.75 0 01.75.75v1.94l2.47-2.47A.75.75 0 0146 31h12.75a.75.75 0 00.75-.75v-12a.75.75 0 00-.75-.75h-19.5z"/><path d="M43 26.5a2.25 2.25 0 110-4.5 2.25 2.25 0 010 4.5zm0-3a.75.75 0 100 1.5.75.75 0 000-1.5zm6 3a2.25 2.25 0 110-4.5 2.25 2.25 0 010 4.5zm0-3a.75.75 0 100 1.5.75.75 0 000-1.5zm6 3a2.25 2.25 0 110-4.5 2.25 2.25 0 010 4.5zm0-3a.75.75 0 100 1.5.75.75 0 000-1.5zm-34.5 5.25H19v-3a.75.75 0 01.75-.75h3v1.5H20.5v2.25zm-1.5 1.5h1.5v1.5H19v-1.5z"/></g><defs><clipPath id="clip0_980_2014"><path fill="#fff" transform="translate(16 16)" d="M0 0h48v48H0z"/></clipPath></defs></svg>
